X: 10266
T: Doctor's, The
R: reel
M: 4/4
K: Gmajor
D|{F}G2DC B,DG,B,|DGBd eAAB|{F}G2DC B,DGg|dBcA BG[GB,]:|
B|egfg ebge|dafd AFDd|egfg efga|bagf gee^d|
ebge BGE^c|dafd AFDF|{F}G2DC B,D[G,G]g|dBcA BG[GB,]||

